X:115
T: Robin in the Apple Tree
S: "The Piper's Dream"
C: Pat McNulty
Z: B.Black
L: 1/8
M: 4/4
R: reel
K: Ador
z2 | eAAG EAAc | BG (3GFG EG (3GFG | cBcd eg (3gfg |\
edBA G2 ed |
(3cBA BG AE (3EDE | GABd A2 Bd | eg (3gfg ag (3gfg |\
edBG A2 :|
BA | G2 BG gafg | eB (3BAB GABd | GABc defg |\
ad (3dcd adfd |
G2 BG gafg | eaag aged | eg (3gfg ag (3gfg |\
edBG A2 :|
